X:365
T:Polska efter Carl Gustaf Holmberg
T:(SvL Närke 365)
O:Ringkarleby, Närke
R:Polska
S:Carl Gustaf Holmberg
B:Svenska Låtar Närke
M:3/4
L:1/8
K:D
d(e/f/) g(a/g/) f(g/f/)|e(f/e/) .d.c .B.A|.a.a .b.b .a.a|gg f2 f2:|
|:a2 g(a/g/) ff|gg f(g/f/) e2|a2 g(a/g/) ff|gg f(g/f/) e2|
(d>c) .d.e .f.g|(e>c) d2 D2:|

